src/icons/file.svg

<svg width="16" height="16" xmlns="http://www.w3.org/2000/svg"><path fill-rule="evenodd" clip-rule="evenodd" d="M10.57 1.14l3.28 3.3.15.36v9.7l-.5.5h-11l-.5-.5v-13l.5-.5h7.72l.35.14zM10 5h3l-3-3v3zM3 2v12h10V6H9.5L9 5.5V2H3zm8 5H5v1h6V7zM5 9h6v1H5V9zm6 2H5v1h6v-1z"/></svg>

<svg width="16" height="16" viewBox="0 0 16 16" fill="none" xmlns="http://www.w3.org/2000/svg">
<path fill-rule="evenodd" clip-rule="evenodd" d="M10.57 1.14L13.85 4.44L14 4.8V14.5L13.5 15H2.5L2 14.5V1.5L2.5 1H10.22L10.57 1.14ZM10 5H13L10 2V5ZM3 2V14H13V6H9.5L9 5.5V2H3ZM11 7H5V8H11V7ZM5 9H11V10H5V9ZM11 11H5V12H11V11Z" fill="white"/>
</svg>
